X:422
T:Yellow Hair’d Laddie,The. RH.422
R:air
S:Rev.R.Harrison’s MS,c1815,Cumbria
O:England
A:Temple Sowerby,Cumbria
Z:vmp.Simon Wilson. Review PJH, 2008.
M:3/4
L:1/16
Q:3/4=40
K:D
D3E|F4A4 B4|d6e2 (def2)|\
(A3B)A2F2 E2D2|E8 D3E|F4A4 B4|!
(d3c)(d3e) (def2)|1(A3B) (A2F2)(E2D2)|\
D8:|2A4gf3e3d|d8||!
|:d3e|f4(a2f2e2d2)|c4(e2c2B2A2)|\
(B2c2)(d2B2)(A2F2)|E4D3E|!
F4A4B2c2|1d2c2d2e2 (def2)|A6f2 e3d|d8:|2\
(d2c2)(d2B2)(A3d)|A3BE6D2|D8||!
|:D3E|”Variation”F4A4B3c|d2c2d2e2 (def2)|\
A2d2 BAGF GFED|E8D2E2|!
F4A4B2c2|1(d2c2)(d2B2)(A3B)|AFED E6D2|D8:|2\
d2c2 defg a3b|afed e3d|d8||!
|:d3e|(fefg) a2f2e2d2|(cBcd) e2c2B2A2|\
(BABc) (BcdB) AFED|E8D2E2|!
F4A4B2c2|1d2c2d2e2 (def2)|\
A3ge6d2|d8:|2d2c2 d2cB A3B|AFED E4D2|D8|]

